icons/desktop/12/svg/video-game-controller-12.svg

<svg width="12" height="12" viewBox="0 0 12 12" fill="none" xmlns="http://www.w3.org/2000/svg">
<g clip-path="url(#clip0_8069_32461)">
<path d="M4.49981 4.375C4.77595 4.375 4.99981 4.59886 4.99981 4.875V5.25H5.37481C5.65095 5.25 5.87481 5.47386 5.87481 5.75C5.87481 6.02614 5.65095 6.25 5.37481 6.25H4.99981V6.625C4.99981 6.90114 4.77595 7.125 4.49981 7.125C4.22375 7.1249 3.99981 6.90108 3.99981 6.625V6.25H3.62481C3.34875 6.2499 3.12481 6.02608 3.12481 5.75C3.12481 5.47392 3.34875 5.2501 3.62481 5.25H3.99981V4.875C3.99981 4.59892 4.22375 4.3751 4.49981 4.375Z" fill="black"/>
<path d="M7.74981 5C8.16402 5 8.49981 5.33579 8.49981 5.75C8.49981 6.16421 8.16402 6.5 7.74981 6.5C7.33568 6.4999 6.99981 6.16415 6.99981 5.75C6.99981 5.33585 7.33568 5.0001 7.74981 5Z" fill="black"/>
<path fill-rule="evenodd" clip-rule="evenodd" d="M5.99981 2.04004C6.91183 2.04004 7.76581 2.08649 8.55157 2.16016C9.53478 2.25238 10.3534 2.93738 10.616 3.88379L11.9207 8.58691C12.17 9.41856 11.822 10.3372 11.0359 10.7861C10.1212 11.3083 8.94639 11.0011 8.41387 10.0879L8.41192 10.083L7.86211 9.12305C7.30117 9.18565 6.67723 9.22851 5.99981 9.22852C5.32388 9.22851 4.70131 9.18619 4.14141 9.12402L4.0584 9.26953L3.58868 10.084L3.58672 10.0869C3.05459 10.9993 1.88202 11.3077 0.96563 10.7842C0.172878 10.3318 -0.172903 9.40396 0.0867235 8.56836L1.38555 3.88086C1.64807 2.93333 2.46868 2.24607 3.45391 2.15527L4.0545 2.10742C4.66739 2.06484 5.31728 2.04004 5.99981 2.04004ZM5.99981 3.29004C5.34754 3.29004 4.72666 3.31384 4.14141 3.35449L3.56817 3.40039C3.15806 3.43827 2.81119 3.69181 2.64825 4.05371L2.59063 4.21484L1.2879 8.91016C1.28572 8.91799 1.28354 8.92585 1.28106 8.93359C1.20137 9.18247 1.28052 9.46086 1.48809 9.63281L1.58477 9.69922C1.91021 9.88521 2.3228 9.77223 2.50665 9.45703L3.26641 8.13965C3.39837 7.91084 3.65376 7.79856 3.90118 7.83594C4.5124 7.9189 5.21764 7.9785 5.99981 7.97852C6.78933 7.97851 7.50027 7.91851 8.11407 7.83398L8.20782 7.82812C8.42644 7.83115 8.63113 7.94883 8.742 8.14258L9.06231 8.7041L9.49395 9.45801C9.6774 9.77256 10.0906 9.88571 10.4158 9.7002C10.692 9.54245 10.8095 9.223 10.7215 8.93945C10.7196 8.93335 10.7173 8.92706 10.7156 8.9209L9.41192 4.21777C9.28837 3.77257 8.90282 3.4482 8.43438 3.4043C7.68426 3.33398 6.86962 3.29004 5.99981 3.29004Z" fill="black"/>
</g>
<defs>
<clipPath id="clip0_8069_32461">
<rect width="12" height="12" fill="white"/>
</clipPath>
</defs>
</svg>

<!-- This Source Code Form is subject to the terms of the Mozilla Public
   - License, v. 2.0. If a copy of the MPL was not distributed with this
   - file, You can obtain one at http://mozilla.org/MPL/2.0/. -->
<svg xmlns="http://www.w3.org/2000/svg" width="12" height="12" fill="context-fill" fill-opacity="context-fill-opacity" viewBox="0 0 12 12">
    <g clip-path="url(#clip0_8069_32461)">
        <path d="M4.5 4.375a.5.5 0 0 1 .5.5v.375h.375a.5.5 0 0 1 0 1H5v.375a.5.5 0 0 1-1 0V6.25h-.375a.5.5 0 0 1 0-1H4v-.375a.5.5 0 0 1 .5-.5M7.75 5a.75.75 0 1 1 0 1.5.75.75 0 0 1 0-1.5" />
        <path fill-rule="evenodd" d="M6 2.04c.912 0 1.766.046 2.552.12a2.37 2.37 0 0 1 2.064 1.724l1.305 4.703c.249.832-.099 1.75-.885 2.2a1.93 1.93 0 0 1-2.622-.7l-.002-.004-.55-.96c-.56.063-1.185.106-1.862.106-.676 0-1.299-.043-1.859-.105l-.083.146-.47.814-.001.003a1.93 1.93 0 0 1-2.621.697 1.9 1.9 0 0 1-.88-2.216l1.3-4.687a2.37 2.37 0 0 1 2.068-1.726l.6-.048A28 28 0 0 1 6 2.04m0 1.25q-.979.002-1.859.064l-.573.046c-.41.038-.757.292-.92.654l-.057.16L1.288 8.91l-.007.024c-.08.248 0 .527.207.699l.097.066a.68.68 0 0 0 .922-.242l.76-1.317a.62.62 0 0 1 .634-.304 15.6 15.6 0 0 0 4.213-.002l.094-.006c.218.003.423.12.534.315l.32.561.432.754a.68.68 0 0 0 .922.242.654.654 0 0 0 .306-.76q-.004-.01-.006-.02L9.412 4.219a1.12 1.12 0 0 0-.978-.814C7.684 3.334 6.87 3.29 6 3.29" clip-rule="evenodd" />
    </g>
</svg>
